!!!OTL: FREUND ICH ACHTE NICHT DES MAHLES
!!!ARE: Europa, Mitteleuropa, Deutschland
!!!SCT: F0705
!!!YEM: Copyright 1995, estate of Helmut Schaffrath.
**kern
*ICvox
*Ivox
*M4/4
*k[f#c#]
*D:
=1
{4d
4c#
4B
4A
=2
4B
4A
4G
4F#}
=3
{4G
4F#
4E
4D
=4
2A}
{[2d
=5
4d]
4c#
4B
4A
=6
4G#
4A
4B
4E}
=7
{4A
4C#
4D
4E
=8
2A
2r}
=9
{4.A
8B
4c#
4d
=10
4.e
8d
4c#
4B}
=11
{4.A
8G
4F#
4E
=12
4.A
8G
4F#
4E}
=13
{4D
4F#
2A
=14
4F#
4A
2d}
=15
{4f#
4e
4d
4A
=16
4d
4e
4f#
4e}
=17
{2d
2e
=18
2f#
2r}
=19
{4g
4e
4d
4c#
=20
2d
2r}
==
!!!AGN: Geselligkeits -, Trink - Lied, Rundgesang
!!!ONB: ESAC (Essen Associative Code) Database: FINK
!!!AMT: simple quadruple
!!!AIN: vox
!!!EED: Helmut Schaffrath
!!!EEV: 1.0
*-
